X: 1
T: What Child is This?
T: Greensleeves
N: Also played as a jig
M: 3/4
L: 1/4
K: Edor
E \
| "Em"G2"(Am)"A | "Em"B>cB | "D"A2F | "(Bm)"D>EF \
| "Em"G2E | "(C)"E>^DE | "B7"F2^D | B,2E |
| "Em"G2"(Am)"A | "Em"B>cB | "D"A2F | "(Bm)"D>EF \
| "C"G>FE | "B7"^D>^CD | "Em"E3 | E3 |]
[| "G"d3 | d>cB | "D"A2F | "(Bm)"D>EF \
| "Em"G2E | "(C)"E>^DE | "B7"F2^D | B,3 |
|  "G"d3 | d>cB | "D"A2F | "(Bm)"D>EF \
| "Em(C)"G>FE | "B7"^D>^CD | "Em"E3 | E2 |]
